src/actions/24/akonadiconsole.svg

<svg xmlns="http://www.w3.org/2000/svg" viewBox="0 0 24 24">
  <defs id="defs3051">
    <style type="text/css" id="current-color-scheme">
      .ColorScheme-Text {
        color:#2e3440;
      }
      </style>
  </defs><g transform="translate(1,1)">
 <path 
    style="fill:currentColor;fill-opacity:1;stroke:none" 
    d="M 3 3 L 3 4 L 3 15 L 3 16 L 3 19 L 4 19 L 6 19 L 14 19 L 18 19 L 19 19 L 19 4 L 19 3 L 3 3 z M 4 4 L 18 4 L 18 18 L 14 18 L 6 18 L 4 18 L 4 16 L 4 15 L 4 4 z M 6.7070312 7 L 6 7.7070312 L 7.7929688 9.5 L 6 11.292969 L 6.7070312 12 L 9 9.7070312 L 9.2070312 9.5 L 9 9.2929688 L 6.7070312 7 z M 10 10.998047 L 10 11.998047 L 14 11.998047 L 14 10.998047 L 10 10.998047 z "
    class="ColorScheme-Text"
    />  
</g></svg>

<svg viewBox="0 0 24 24" xmlns="http://www.w3.org/2000/svg">
 <defs>
  <style type="text/css">.ColorScheme-Text {
        color:#2e3440;
      }</style>
 </defs>
 <g transform="translate(1,1)">
  <path class="ColorScheme-Text" d="m3 3v1 11 1 3h1 2 8 4 1v-15-1h-16zm1 1h14v14h-4-8-2v-2-1-11zm2.707 3-0.70703 0.70703 1.793 1.793-1.793 1.793 0.70703 0.70703 2.5-2.5-2.5-2.5zm3.293 3.998v1h4v-1h-4z" fill="currentColor"/>
 </g>
</svg>
